icons/assets/dark/microsoft.svg

<svg width="48" height="48" fill="none" xmlns="http://www.w3.org/2000/svg"><path d="M8 20V8h12v12H8zM28 20V8h12v12H28zM8 40V28h12v12H8zM28 40V28h12v12H28z" stroke="#62646A" stroke-width="3.5" stroke-linecap="round" stroke-linejoin="round"/></svg>

<svg width="48" height="48" viewBox="0 0 48 48" fill="none" xmlns="http://www.w3.org/2000/svg">
<path d="M8 20V8H20V20H8Z" stroke="#62646A" stroke-width="3.5" stroke-linecap="round" stroke-linejoin="round"/>
<path d="M28 20V8H40V20H28Z" stroke="#62646A" stroke-width="3.5" stroke-linecap="round" stroke-linejoin="round"/>
<path d="M8 40V28H20V40H8Z" stroke="#62646A" stroke-width="3.5" stroke-linecap="round" stroke-linejoin="round"/>
<path d="M28 40V28H40V40H28Z" stroke="#62646A" stroke-width="3.5" stroke-linecap="round" stroke-linejoin="round"/>
</svg>
